src/icons/graph.svg

<svg width="16" height="16" xmlns="http://www.w3.org/2000/svg"><path fill-rule="evenodd" clip-rule="evenodd" d="M1.5 14H15v-1H2V0H1v13.5l.5.5zM3 11.5v-8l.5-.5h2l.5.5v8l-.5.5h-2l-.5-.5zm2-.5V4H4v7h1zm6-9.5v10l.5.5h2l.5-.5v-10l-.5-.5h-2l-.5.5zm2 .5v9h-1V2h1zm-6 9.5v-6l.5-.5h2l.5.5v6l-.5.5h-2l-.5-.5zm2-.5V6H8v5h1z"/></svg>

<svg width="16" height="16" viewBox="0 0 16 16" fill="none" xmlns="http://www.w3.org/2000/svg">
<path fill-rule="evenodd" clip-rule="evenodd" d="M1.5 14H15V13H2V0H1V13.5L1.5 14ZM3 11.5V3.5L3.5 3H5.5L6 3.5V11.5L5.5 12H3.5L3 11.5ZM5 11V4H4V11H5ZM11 1.5V11.5L11.5 12H13.5L14 11.5V1.5L13.5 1H11.5L11 1.5ZM13 2V11H12V2H13ZM7 11.5V5.5L7.5 5H9.5L10 5.5V11.5L9.5 12H7.5L7 11.5ZM9 11V6H8V11H9Z" fill="white"/>
</svg>
